!! J.S. Bach "Grave" from Sonata No. 2, for solo violin, BWV 1003.
!! From 'Neue Ausgabe Saemtlicher Werke' Serie VI: Kammermusikwerke,
!! Band 1 ('Werke fuer Violine') Baerenreiter Kassel (Basel) 1958; pp.20-21
!! NOTE:  This 'monophonic' work has been recoded here as a four-part work.
!! NOTE:  A considerable degree of latitude has been exercised in the
!!        assignment of parts and voices.
**kern	**kern	**kern	**kern
*M4/4	*M4/4	*M4/4	*M4/4
=1	=1	=1	=1
4A	4a	4cc	4ee
4r	2.r	2.r	32G
.	.	.	{32ff
.	.	.	32ee
.	.	.	64dd
.	.	.	64cc
.	.	.	16bT
.	.	.	16a}
8f	.	.	16a
.	.	.	16g#
8r	.	.	[8a
8e	.	.	16a]
.	.	.	{32a
.	.	.	32b
8r	.	.	32cc
.	.	.	32dd
.	.	.	16ee}
=2	=2	=2	=2
8d	8a	1r	16.ff
.	.	.	32ee
8r	8r	.	16dd
.	.	.	{32cc
.	.	.	32b}
8d#	2.r	.	{8b
8r	.	.	32aT}
.	.	.	32g#
.	.	.	16a
4r	.	.	8gT
.	.	.	{16f#
.	.	.	16e}
8G#	.	.	16.dn
.	.	.	{32fn
8r	.	.	32e
.	.	.	32d
.	.	.	32c
.	.	.	64d
.	.	.	64B}
=3	=3	=3	=3
2r	2r	1r	{32c
.	.	.	32A
.	.	.	32c
.	.	.	32e
.	.	.	32a
.	.	.	32cc
.	.	.	32ee
.	.	.	32ff}
.	.	.	8.ffT
.	.	.	{32ee
.	.	.	32ff}
8e	8cc	.	16.gg
.	.	.	{32ff
8r	8r	.	16ee
.	.	.	32dd
.	.	.	32cc}
4r	4r	.	{8cc
.	.	.	32b-T}
.	.	.	32a
.	.	.	16b-
=4	=4	=4	=4
8f	1r	1r	8.a
8r	.	.	.
.	.	.	16aa
4r	.	.	{32gg
.	.	.	16ff
.	.	.	32ee
.	.	.	16dd
.	.	.	32ee
.	.	.	32cc}
8f	.	.	32.bn
.	.	.	{64g
.	.	.	32a
.	.	.	32b
8r	.	.	32cc
.	.	.	32dd
.	.	.	64ee
.	.	.	64ff
.	.	.	64gg
.	.	.	64b}
4e	.	.	8.ccT
.	.	.	{32b
.	.	.	32cc}
=5	=5	=5	=5
8B	8g	1r	8.dd
8r	8r	.	.
.	.	.	16g
4r	4r	.	{24f
.	.	.	24e
.	.	.	24d}
.	.	.	{24a
.	.	.	24g
.	.	.	24f}
4c	2r	.	[16e
.	.	.	64e]
.	.	.	64g
.	.	.	{64a
.	.	.	64b
.	.	.	[16cc
.	.	.	64cc}]
.	.	.	{64g
.	.	.	64a
.	.	.	64b
4r	.	.	64cc
.	.	.	64dd
.	.	.	16ee}
.	.	.	{32b
.	.	.	32cc
.	.	.	32dd
.	.	.	32ee
.	.	.	64gg
.	.	.	64ff#}
=6	=6	=6	=6
8a	8r	1r	16ff#
.	.	.	{16aa
8r	8r	.	16ccc
.	.	.	32ddd
.	.	.	32bb}
8r	8r	.	16ccc
.	.	.	32ffn
.	.	.	32ee
8a	8cc	.	8ff
8g	8cc	.	8ee
8f	8r	.	16r
.	.	.	16aa
4g	4r	.	8.b
.	.	.	16cc
=7	=7	=7	=7
8c	8e	1r	[8cc
8r	8r	.	32cc]
.	.	.	{32g
.	.	.	32a
.	.	.	32b
4r	2.r	.	32cc
.	.	.	32dd
.	.	.	32ee
.	.	.	32ff
.	.	.	32ee
.	.	.	32dd
.	.	.	32cc
.	.	.	64b
.	.	.	64a}
16B	.	.	32g#
.	.	.	{32e
8.r	.	.	32g#
.	.	.	32b
.	.	.	32dd
.	.	.	32a
.	.	.	32f
.	.	.	32A}
4r	.	.	16.G#
.	.	.	{32ff
.	.	.	32ee
.	.	.	32dd
.	.	.	32cc
.	.	.	64dd
.	.	.	64b}
=8	=8	=8	=8
8A	8e	1r	8cc
4.r	4.r	.	{16b
.	.	.	16a}
.	.	.	8.ff#
.	.	.	16ff#
8.d#	8.cc	.	8.ff#
16r	16r	.	32gg
.	.	.	32aa
8r	8r	.	16gg
.	.	.	16ff#
8e	16b	.	16gg
.	16g	.	16ee
=9	=9	=9	=9
8B	8f#	1r	{16ee
.	.	.	16dd#}
8r	8r	.	{16cc#
.	.	.	16b}
2.r	2.r	.	16.bb
.	.	.	{64b
.	.	.	64ccn
.	.	.	32ddn
.	.	.	32ee
.	.	.	32ffn
.	.	.	32dd}
.	.	.	16g#
.	.	.	[16ff
.	.	.	32ff]
.	.	.	{32ggn
.	.	.	32ff
.	.	.	32ee
.	.	.	32dd
.	.	.	32cc#
.	.	.	16dd}
.	.	.	{16bb
.	.	.	16dd}
=10	=10	=10	=10
8gn	2r	1r	16.cc#
.	.	.	{32ee
8r	.	.	32ff#
.	.	.	32gg
.	.	.	32aa
.	.	.	32bb
8r	.	.	32cccn
.	.	.	32bb
.	.	.	16ccc}
8f#	.	.	16dd#
.	.	.	16ccc
8g	8ee	.	8.bb
8a	4.r	.	.
.	.	.	16aa
8b	.	.	{16aa
.	.	.	16gg
8r	.	.	16aa}
.	.	.	16ff
=11	=11	=11	=11
[8a#	2r	2r	8ee
32a#]	.	.	4.r
{32b	.	.	.
32cc#	.	.	.
32dd#	.	.	.
32ee	.	.	.
32cc#	.	.	.
32a#	.	.	.
32gn	.	.	.
32f#	.	.	.
32e	.	.	.
32f#	.	.	.
32A#}	.	.	.
8B	8g	8b	8.ee
8r	8r	8r	.
.	.	.	16ff#
4r	8f#	4r	8.dd#
.	8r	.	.
.	.	.	16ee
=12	=12	=12	=12
1r	4e	1r	[4ee
.	4r	.	16ee]
.	.	.	{32ffn
.	.	.	32ee
.	.	.	32ddn
.	.	.	32ccn
.	.	.	32b
.	.	.	64cc
.	.	.	64a}
.	8d	.	[8g#
.	4.r	.	32g#]
.	.	.	{32a
.	.	.	32b
.	.	.	32a
.	.	.	32g#
.	.	.	32f#
.	.	.	32e
.	.	.	32d
.	.	.	16c
.	.	.	32d
.	.	.	32B}
=13	=13	=13	=13
8c	8e	2r	[8a
8r	8r	.	32a]
.	.	.	{32e
.	.	.	32f#
.	.	.	32g#
4r	4r	.	32a
.	.	.	32b
.	.	.	32cc
.	.	.	32dd
.	.	.	32ee
.	.	.	32ffn
.	.	.	32ggn
.	.	.	64bb-
.	.	.	64aa}
8A	8e	8cc#	{16bb-
.	.	.	16aa}
8r	8r	8r	{16aa
.	.	.	16gg}
4r	8r	4r	{16gg
.	.	.	16ff}
.	8a	.	{16gg
.	.	.	16ee}
=14	=14	=14	=14
8d	8a	1r	16ff
.	.	.	32aa
.	.	.	32gg
8r	8r	.	8aa
2.r	2.r	.	32c
.	.	.	{32bb-
.	.	.	32aa
.	.	.	32gg
.	.	.	32ff
.	.	.	32ee
.	.	.	32dd
.	.	.	64ee
.	.	.	64cc#}
.	.	.	{32dd
.	.	.	32a
.	.	.	32b-
.	.	.	32g
.	.	.	32e
.	.	.	32c#
.	.	.	32d
.	.	.	32B-}
.	.	.	{32A
.	.	.	32d
.	.	.	32f#
.	.	.	32a
.	.	.	32ccn
.	.	.	32ee-
.	.	.	32dd
.	.	.	32a}
=15	=15	=15	=15
2r	1r	1r	{32b-
.	.	.	32f#
.	.	.	32g
.	.	.	32b-
.	.	.	32dd
.	.	.	32ff#
.	.	.	32gg
.	.	.	32bb-}
.	.	.	{16ffn
.	.	.	16eenT}
.	.	.	{32g#
.	.	.	32dd
.	.	.	32cc#
.	.	.	32dd}
8a	.	.	16.cc#
.	.	.	{32dd
8r	.	.	32ee
.	.	.	32ff
.	.	.	32ggn
.	.	.	32ee}
4r	.	.	16.b-
.	.	.	{64c#
.	.	.	64d
.	.	.	32e
.	.	.	32fn
.	.	.	32gn
.	.	.	32e}
=16	=16	=16	=16
4r	4r	1r	{32a
.	.	.	32g#
.	.	.	32a
.	.	.	32dd
.	.	.	32ff
.	.	.	32gg#
.	.	.	32aa
.	.	.	32bb-}
8A	8e	.	{8dd
8r	8r	.	16.cc#}
.	.	.	32dd
2r	8d	.	16.dd
.	.	.	{64ccn
.	.	.	64b-
.	8r	.	32a
.	.	.	32gn
.	.	.	32f
.	.	.	64g
.	.	.	64a}
.	4r	.	32d
.	.	.	{32f
.	.	.	32a
.	.	.	32dd
.	.	.	32ff
.	.	.	32aa
.	.	.	64ggn
.	.	.	64ee
.	.	.	32ff}
=17	=17	=17	=17
8G	8d	8bn	[8ff
8r	8r	8r	64ff]
.	.	.	{64dd
.	.	.	64ee
.	.	.	64ff
.	.	.	64gg
.	.	.	64aa
.	.	.	64bbn
.	.	.	64ccc}
4r	4r	4r	{16ddd
.	.	.	32bb
.	.	.	32gg
.	.	.	16ffT
.	.	.	16ee}
8c	[8b	2r	8ee
8r	32b]	.	4.r
.	{32dd	.	.
.	32cc	.	.
.	32b	.	.
4r	32a	.	.
.	32g#	.	.
.	32a	.	.
.	32cc	.	.
.	32ee	.	.
.	32cc	.	.
.	32a	.	.
.	32f#}	.	.
=18	=18	=18	=18
8B	8a	1r	16dd
.	.	.	{32ee
.	.	.	32ff}
8r	8r	.	16g#
.	.	.	16ee
8A	8a	.	8dd
8r	8r	.	16.ccT
.	.	.	64b
.	.	.	64cc
8e	2r	.	[8b
8r	.	.	32b]
.	.	.	{32gg#
.	.	.	32aa
.	.	.	32bb}
4r	.	.	{32aa
.	.	.	32gg#
.	.	.	32ff#
.	.	.	32ee
.	.	.	32dd
.	.	.	32b
.	.	.	32g#
.	.	.	32e}
=19	=19	=19	=19
2r	1r	1r	{16c#
.	.	.	32gn
.	.	.	32a
.	.	.	16b-}
.	.	.	16a
.	.	.	{32g
.	.	.	32f#
.	.	.	16g
.	.	.	16ee}
.	.	.	16g
8c	.	.	32.f#
.	.	.	{64a
.	.	.	32bn
.	.	.	32ccn
8r	.	.	32dd
.	.	.	32ee
.	.	.	32ffn
.	.	.	32gg}
8r	.	.	{32ff
.	.	.	32ee
.	.	.	32ff}
.	.	.	32dd
8B	.	.	16g#
.	.	.	16ff
=20	=20	=20	=20
8c	8a	1r	8.ee
8d	8r	.	.
.	.	.	16dd
8e	4r	.	{16dd
.	.	.	16cc}
8r	.	.	{16dd
.	.	.	16b}
8.d#	8.cc	.	8.aa
16r	16r	.	{32bb
.	.	.	32ccc}
4r	4r	.	{32bb
.	.	.	32gg#
.	.	.	32aa
.	.	.	32ff
.	.	.	32ee
.	.	.	32dd#
.	.	.	32ee
.	.	.	32a}
=21	=21	=21	=21
8e	1r	1r	64a
.	.	.	64b
.	.	.	16.cc
16dn	.	.	8r
16ddn	.	.	.
4e	.	.	8.b
.	.	.	16a
2r	.	.	16A
.	.	.	{32a
.	.	.	32g#
.	.	.	32a
.	.	.	32cc
.	.	.	16ff}
.	.	.	16Gn
.	.	.	{32gn
.	.	.	32f#
.	.	.	32g
.	.	.	32b
.	.	.	64ee
.	.	.	64dd#
.	.	.	32ee}
=22	=22	=22	=22
2r	1r	1r	{32fn
.	.	.	32ee
.	.	.	32aa
.	.	.	32gg#
.	.	.	32aa
.	.	.	32ccc
.	.	.	32bb
.	.	.	32ddd
.	.	.	32gg#
.	.	.	32aa
.	.	.	32ee
.	.	.	32cc
.	.	.	32a
.	.	.	32f
.	.	.	32a
.	.	.	32cc#}
4fT	.	.	4ddnT
4f#T	.	.	4dd#T
=23	=23	=23	=23
1e	1r	1r	1ee
==	==	==	==
*-	*-	*-	*-
